X:1
T:8 Lieder und Gesänge, Op.59
T:Mein wundes Herz
T:8 Lieder und Gesänge, Op.59
T:7. Mein wundes Herz
T:Johannes Brahms
T:Klaus Groth
T:Creative Commons copyright waiver (CC0 1.0 Universal)
T:Creative Commons copyright waiver (CC0 1.0 Universal)
T:Creative Commons copyright waiver (CC0 1.0 Universal)
C:Johannes Brahms
Z:Klaus Groth
Z:Creative Commons copyright waiver (CC0 1.0 Universal)
L:1/8
M:4/4
K:G
V:1 treble nm="Voice"
V:1
 z8 | z8 | z8 | z8 | z2 B2 G2 F2 | E2 B2 g2 e2 | d6 c2 | B4 z2 B2 | ^c6 c2 | ^d6 e2 | f6 z2 | z8 | %12
w: ||||Mein wun- des|Herz ver- langt nach|mil- der|Ruh, o|hau- .che|sie ihm|ein!||
 z2 F2 A2 B2 | c2 F2 c4- | c2 ^c2 d2 e2 | (e2 d2) z2 =c2 | B3 B e2 ^c2 | d4 z2 =c2 | B6 B2 | %19
w: Es fliegt dir|wei- nend, ban-|* ge schla- gend|zu, * o|hül- le du es|ein, o|hül- le|
 e6 F2 | G2 z2 z4 | z8 | z8 | z8 | z2 B2 G2 F2 | E2 B2 g2 e2 | d6 c2 | B4 z2 B2 | ^c6 c2 | ^d6 e2 | %30
w: du es|ein!||||Wie wenn ein|Strahl durch schwe- re|Wol- ken|bricht, so|win- kest|du ihm|
 f6 z2 ||[K:E] z8 | z2 c2 A2 G2 | F2 z2 z2 e2 | e2 c2 A2 G2 | F2 z2 z2 e2 | (c2 B2) (^A2 c2) | %37
w: zu:||O läch- le|fort mit|dei- nem mil- den|Licht, mit|dei\-- * nem *|
 (f2 e2) (d2 c2) | B4 z2 ^B2 | c3 c f2 d2 | (e2 B2) z2 ^B2 | (d2 c2) z2 d2 | (f4 e2) z2 | z4 B4 | %44
w: mil- * den *|Licht! Mein|Pol, mein Stern bist|du, * mein|Pol, * mein|Stern, *|mein|
 G4 F4 | E4 z4 | z8 | z8 | !fermata!z8 |] %49
w: Stern bist|du!||||

